X: 38
T: the Waters of Holland    (Bm)
T: O Nederland, let op U saeck
C: old Dutch, arr. Pat Shaw
B: Pat Shaw's New Wine in Old Bottles p.38
Z: 2011 John Chambers <jc:trillian.mit.edu>
N: Formation:- Longways set for 3 couples, progressive
P: 7 x (AAB)
Q: "Lyrical, but not too slow"
R: march, reel
M: C|
L: 1/8
K: Bm
"A"[|] F2 |\
"Bm(A7)"B2c2 d2e2 | "F#m(D)"f4 f2a2 |\
"C#"^g2f2 f2=e2 | "F#"f6 "B":: f2 |\
"D"d4 d2f2 | "A"e4 e3c |
"Bm"d2c2 B2d2 | "Em"e4 "F#"c4 |\
"Bm"BABc d2"A"c2 | "G"Bcde "D"f3f |\
"Em"e2d2 c2B2 | "F#"c4 "Bm"B2 :|
